source/images/logo-cat-energy.svg

<svg width="128" height="24" viewBox="0 0 128 24" fill="none" xmlns="http://www.w3.org/2000/svg">
<path d="M1.6236 21.9574C0.489608 20.2815 -0.0733133 18.2722 0.0213584 16.2383V7.7617C-0.115966 5.70593 0.411707 3.66097 1.52346 1.94043C2.62499 0.612766 4.32737 0 6.83086 0C9.33436 0 10.9366 0.612766 11.938 1.73617C13.0252 3.15904 13.56 4.9407 13.4401 6.74043V8.78298H8.53324V6.43404C8.57287 5.73932 8.47057 5.04378 8.23282 4.39149C8.10574 4.12819 7.90433 3.90969 7.65449 3.76409C7.40465 3.61849 7.11781 3.55245 6.83086 3.57447C6.12989 3.57447 5.62919 3.77872 5.42891 4.28936C5.20237 5.015 5.10073 5.77516 5.12849 6.53617V17.4638C5.0756 18.2022 5.21373 18.9417 5.52905 19.6085C5.72933 20.1192 6.23003 20.3234 6.931 20.3234C7.63198 20.3234 8.03254 20.1192 8.23282 19.6085C8.4605 18.9183 8.56232 18.1914 8.53324 17.4638V15.0128H13.4401V17.0553C13.5419 18.8844 13.0103 20.6918 11.938 22.1617C10.9366 23.3872 9.23422 24 6.83086 24C4.42751 23.8979 2.62499 23.2851 1.6236 21.9574Z" fill="#111111"/>
<path d="M19.3483 0.306396H25.0563L29.2622 23.5915H24.6557L23.8546 18.6894H20.55L19.7489 23.5915H15.0423L19.3483 0.306396ZM23.454 15.6255L22.2524 6.53618L21.0507 15.6255H23.454Z" fill="#111111"/>
<path d="M32.767 4.18725H29.3623V0.306396H41.2789V4.08512H37.8742V23.5915H32.767V4.18725Z" fill="#111111"/>
<path d="M50.3916 0.306396H59.2039V2.75746H53.496V10.417H58.1024V12.766H53.496V21.3447H59.2039V23.6936H50.2915V0.306396H50.3916Z" fill="#111111"/>
<path d="M61.8076 0.306396H64.0107L70.5198 15.7277V0.306396H73.1234V23.5915H71.1206L64.5114 7.65959V23.5915H61.8076V0.306396Z" fill="#111111"/>
<path d="M76.1276 0.306396H84.9399V2.75746H79.2319V10.417H83.8383V12.766H79.2319V21.3447H84.9399V23.6936H76.1276V0.306396Z" fill="#111111"/>
<path d="M87.5435 0.306296H92.1499C93.962 0.178639 95.7629 0.682798 97.2571 1.73608C98.3586 2.65523 98.8593 4.28927 98.8593 6.43396C98.8593 9.39566 97.958 11.234 96.0554 11.8467L99.2599 23.4893H96.1555L93.1513 12.5616H90.6478V23.4893H87.4434V0.306296H87.5435ZM91.9497 10.3148C92.982 10.4016 94.011 10.1121 94.8537 9.49778C95.4546 8.98715 95.755 7.96587 95.755 6.43396C95.7827 5.67295 95.6811 4.91279 95.4546 4.18715C95.2292 3.66645 94.8421 3.23582 94.353 2.96162C93.6633 2.64108 92.9062 2.50069 92.1499 2.5531H90.748V10.2127H91.9497V10.3148Z" fill="#111111"/>
<path d="M102.865 21.8554C101.824 20.0697 101.335 18.0053 101.463 15.932V8.17025C101.438 6.69026 101.607 5.21349 101.964 3.77876C102.299 2.70664 102.967 1.77469 103.866 1.12344C104.984 0.448453 106.274 0.128462 107.571 0.204291C109.674 0.204291 111.177 0.714929 112.078 1.83833C113.115 3.32172 113.61 5.12795 113.48 6.94472V7.76174H110.476V7.04684C110.48 6.19152 110.413 5.33736 110.275 4.49365C110.191 3.96049 109.903 3.48313 109.474 3.16599C108.911 2.78921 108.243 2.60993 107.571 2.65535C106.853 2.60843 106.143 2.82587 105.569 3.26812C105.333 3.47055 105.141 3.71989 105.003 4.00086C104.865 4.28184 104.785 4.58853 104.768 4.90216C104.636 5.81517 104.569 6.73673 104.567 7.65961V16.3405C104.493 17.663 104.698 18.9863 105.168 20.2213C105.569 21.0383 106.37 21.3447 107.571 21.3447C108.046 21.405 108.527 21.3208 108.955 21.1028C109.383 20.8847 109.737 20.5425 109.975 20.1192C110.504 18.8277 110.743 17.432 110.676 16.0341V14.4H107.772V12.0511H113.58V23.5915H111.577L111.277 20.9362C111.014 21.8261 110.467 22.601 109.724 23.1376C108.98 23.6742 108.081 23.9419 107.171 23.8979C106.343 23.9475 105.517 23.7869 104.765 23.4304C104.014 23.0739 103.361 22.5327 102.865 21.8554Z" fill="#111111"/>
<path d="M119.989 15.4212L115.082 0.408447H118.086L121.591 11.6425L124.996 0.408447H128L123.093 15.4212V23.5914H120.089V15.4212H119.989Z" fill="#111111"/>
</svg>

<svg viewBox="0 0 128 24" fill="none" xmlns="http://www.w3.org/2000/svg"><path d="M1.62 21.96a9.43 9.43 0 0 1-1.6-5.72v-8.48a9.56 9.56 0 0 1 1.5-5.82c1.1-1.33 2.8-1.94 5.31-1.94 2.5 0 4.1.61 5.1 1.74a7.43 7.43 0 0 1 1.51 5v2.04h-4.9v-2.35a5.4 5.4 0 0 0-.3-2.04 1.42 1.42 0 0 0-1.4-.82c-.71 0-1.21.2-1.41.72a6.72 6.72 0 0 0-.3 2.25v10.92a4.3 4.3 0 0 0 .4 2.15c.2.5.7.71 1.4.71s1.1-.2 1.3-.71c.23-.7.33-1.42.3-2.15v-2.45h4.91v2.05a7.92 7.92 0 0 1-1.5 5.1c-1 1.23-2.7 1.84-5.1 1.84-2.41-.1-4.22-.71-5.22-2.04Zm17.73-21.66h5.7l4.21 23.3h-4.6l-.8-4.91h-3.31l-.8 4.9h-4.7l4.3-23.28Zm4.1 15.33-1.2-9.1-1.2 9.1h2.4Zm9.32-11.44h-3.4v-3.88h11.9v3.78h-3.4v19.5h-5.1v-19.4Zm17.63-3.89h8.8v2.46h-5.7v7.66h4.6v2.35h-4.6v8.57h5.7v2.35h-8.9v-23.38h.1Zm11.4 0h2.21l6.51 15.43v-15.42h2.6v23.28h-2l-6.6-15.93v15.93h-2.71v-23.28Zm14.33 0h8.81v2.46h-5.7v7.66h4.6v2.35h-4.6v8.57h5.7v2.35h-8.81v-23.38Zm11.41 0h4.61a7.9 7.9 0 0 1 5.1 1.44c1.1.92 1.6 2.55 1.6 4.7 0 2.96-.9 4.8-2.8 5.4l3.21 11.65h-3.1l-3-10.93h-2.51v10.93h-3.2v-23.18h.1Zm4.41 10.01c1.03.1 2.06-.2 2.9-.81.6-.51.9-1.53.9-3.07a6.72 6.72 0 0 0-.3-2.24 2.58 2.58 0 0 0-1.1-1.23 4.49 4.49 0 0 0-2.2-.4h-1.4v7.65h1.2v.1Zm10.91 11.55a10.49 10.49 0 0 1-1.4-5.93v-7.76a17 17 0 0 1 .5-4.4c.34-1.06 1-2 1.9-2.65 1.12-.67 2.41-1 3.71-.92 2.1 0 3.6.51 4.5 1.64a7.93 7.93 0 0 1 1.41 5.1v.82h-3v-.71c0-.86-.07-1.71-.2-2.56a2.05 2.05 0 0 0-.8-1.32 3.05 3.05 0 0 0-1.9-.51 2.96 2.96 0 0 0-2.01.6 2.3 2.3 0 0 0-.8 1.64c-.13.92-.2 1.84-.2 2.76v8.68a9.43 9.43 0 0 0 .6 3.88c.4.82 1.2 1.12 2.4 1.12a2.38 2.38 0 0 0 2.4-1.22c.53-1.3.77-2.69.7-4.09v-1.63h-2.9v-2.35h5.81v11.54h-2l-.3-2.65a4.17 4.17 0 0 1-1.56 2.2c-.74.53-1.64.8-2.55.76a4.92 4.92 0 0 1-4.3-2.04Zm17.13-6.44-4.9-15.01h3l3.5 11.23 3.4-11.23h3.01l-4.9 15.01v8.17h-3.01v-8.17h-.1Z" fill="#111"/></svg>
